client/src/assets/avatars/controller.svg

<?xml version="1.0" encoding="UTF-8" standalone="no"?>
<!-- Created with Inkscape (http://www.inkscape.org/) -->

<svg
   width="256"
   height="256"
   viewBox="0 0 67.733332 67.733333"
   version="1.1"
   id="svg1"
   xml:space="preserve"
   inkscape:version="1.4.3 (0d15f75042, 2025-12-25)"
   sodipodi:docname="controller.svg"
   xmlns:inkscape="http://www.inkscape.org/namespaces/inkscape"
   xmlns:sodipodi="http://sodipodi.sourceforge.net/DTD/sodipodi-0.dtd"
   xmlns="http://www.w3.org/2000/svg"
   xmlns:svg="http://www.w3.org/2000/svg"><sodipodi:namedview
     id="namedview1"
     pagecolor="#ffffff"
     bordercolor="#000000"
     borderopacity="0.25"
     inkscape:showpageshadow="2"
     inkscape:pageopacity="0.0"
     inkscape:pagecheckerboard="0"
     inkscape:deskcolor="#d1d1d1"
     inkscape:document-units="mm"
     showguides="true"
     inkscape:zoom="2.9482937"
     inkscape:cx="116.67766"
     inkscape:cy="112.60751"
     inkscape:window-width="1651"
     inkscape:window-height="1541"
     inkscape:window-x="0"
     inkscape:window-y="0"
     inkscape:window-maximized="1"
     inkscape:current-layer="layer1"><sodipodi:guide
       position="158.32902,138.53372"
       orientation="1,0"
       id="guide25"
       inkscape:locked="false" /></sodipodi:namedview><defs
     id="defs1" /><g
     inkscape:label="Layer 1"
     inkscape:groupmode="layer"
     id="layer1"><path
       id="path18"
       style="opacity:1;fill:currentColor;fill-opacity:1;stroke:#1a1a1a;stroke-width:2;stroke-linecap:round;stroke-linejoin:round;stroke-miterlimit:10"
       d="m 33.866888,5.1459746 c -7.710768,0 -10.86808,3.4231744 -11.266905,5.6830924 -6.846515,0.631448 -17.3692413,2.235147 -17.3692413,23.051155 0,12.990965 3.2615555,16.221511 5.7932943,16.221511 2.531738,0 5.063291,-7.825127 6.137362,-14.729577 l 7.902043,0.690324 c 2.22486,9.896378 4.641066,25.853241 8.803447,25.853241 4.162382,0 6.578145,-15.956863 8.803005,-25.853241 l 7.902043,-0.690324 c 1.074071,6.90445 3.606067,14.729577 6.137805,14.729577 2.531738,0 5.792851,-3.230546 5.792851,-16.221511 0,-20.816008 -10.522282,-22.419707 -17.368797,-23.051155 C 44.73497,8.569149 41.577657,5.1459746 33.866888,5.1459746 Z" /><path
       id="rect19"
       style="opacity:1;fill:#ffffff;fill-opacity:1;stroke:#1a1a1a;stroke-width:1.99999;stroke-linecap:round;stroke-linejoin:round;stroke-miterlimit:10"
       d="M 16.259473 17.858858 L 16.259473 21.968168 L 12.150163 21.968168 L 12.150163 26.24491 L 16.259473 26.24491 L 16.259473 30.35422 L 20.536214 30.35422 L 20.536214 26.24491 L 24.645524 26.24491 L 24.645524 21.968168 L 20.536214 21.968168 L 20.536214 17.858858 L 16.259473 17.858858 z " /><circle
       style="opacity:1;fill:#ffffff;fill-opacity:1;stroke:#1a1a1a;stroke-width:1.99999;stroke-linecap:round;stroke-linejoin:round;stroke-miterlimit:10"
       id="path20"
       cx="33.866665"
       cy="33.146679"
       r="4.4252672" /><circle
       style="opacity:1;fill:#ffffff;fill-opacity:1;stroke:#1a1a1a;stroke-width:1.99999;stroke-linecap:round;stroke-linejoin:round;stroke-miterlimit:10"
       id="circle20"
       cx="50.549572"
       cy="18.733068"
       r="2.1412582" /><circle
       style="opacity:1;fill:#ffffff;fill-opacity:1;stroke:#1a1a1a;stroke-width:1.99999;stroke-linecap:round;stroke-linejoin:round;stroke-miterlimit:10"
       id="circle21"
       cx="50.549572"
       cy="28.761265"
       r="2.1412582" /><circle
       style="opacity:1;fill:#ffffff;fill-opacity:1;stroke:#1a1a1a;stroke-width:1.99999;stroke-linecap:round;stroke-linejoin:round;stroke-miterlimit:10"
       id="circle23"
       cx="23.747168"
       cy="-55.563671"
       r="2.1412582"
       transform="rotate(90)" /><circle
       style="opacity:1;fill:#ffffff;fill-opacity:1;stroke:#1a1a1a;stroke-width:1.99999;stroke-linecap:round;stroke-linejoin:round;stroke-miterlimit:10"
       id="circle24"
       cx="23.747168"
       cy="-45.535473"
       r="2.1412582"
       transform="rotate(90)" /><circle
       style="opacity:1;fill:#ffffff;fill-opacity:0.40269566;stroke:#1a1a1a;stroke-width:1.99999;stroke-linecap:round;stroke-linejoin:round;stroke-miterlimit:10"
       id="circle25"
       cx="22.077585"
       cy="-33.866665"
       r="2.1412582"
       transform="rotate(90)" /></g></svg>

<?xml version="1.0" encoding="UTF-8"?>
<!-- Created with Inkscape (http://www.inkscape.org/) -->
<svg id="svg1" width="256" height="256" version="1.1" viewBox="0 0 67.733 67.733" xml:space="preserve" xmlns="http://www.w3.org/2000/svg"><g id="layer1" stroke="#1a1a1a" stroke-linecap="round" stroke-linejoin="round" stroke-miterlimit="10"><path id="path18" d="m33.867 5.146c-7.7108 0-10.868 3.4232-11.267 5.6831-6.8465 0.63145-17.369 2.2351-17.369 23.051 0 12.991 3.2616 16.222 5.7933 16.222 2.5317 0 5.0633-7.8251 6.1374-14.73l7.902 0.69032c2.2249 9.8964 4.6411 25.853 8.8034 25.853 4.1624 0 6.5781-15.957 8.803-25.853l7.902-0.69032c1.0741 6.9044 3.6061 14.73 6.1378 14.73s5.7929-3.2305 5.7929-16.222c0-20.816-10.522-22.42-17.369-23.051-0.39882-2.2599-3.5561-5.6831-11.267-5.6831z" fill="currentColor" stroke-width="2"/><path id="rect19" d="m16.259 17.859v4.1093h-4.1093v4.2767h4.1093v4.1093h4.2767v-4.1093h4.1093v-4.2767h-4.1093v-4.1093h-4.2767z" fill="#fff" stroke-width="2"/><circle id="path20" cx="33.867" cy="33.147" r="4.4253" fill="#fff" stroke-width="2"/><circle id="circle20" cx="50.55" cy="18.733" r="2.1413" fill="#fff" stroke-width="2"/><circle id="circle21" cx="50.55" cy="28.761" r="2.1413" fill="#fff" stroke-width="2"/><circle id="circle23" transform="rotate(90)" cx="23.747" cy="-55.564" r="2.1413" fill="#fff" stroke-width="2"/><circle id="circle24" transform="rotate(90)" cx="23.747" cy="-45.535" r="2.1413" fill="#fff" stroke-width="2"/><circle id="circle25" transform="rotate(90)" cx="22.078" cy="-33.867" r="2.1413" fill="#fff" fill-opacity=".4027" stroke-width="2"/></g></svg>
